packages/core/src/svgs/tokens/branded/PREMIA.svg

<svg width="24" height="24" viewBox="0 0 24 24" fill="none" xmlns="http://www.w3.org/2000/svg">
<path d="M7.44519 6.99997H16.536C17.0547 6.99997 17.3546 7.5498 17.0547 7.95589L12.806 13.5229C12.4936 13.9291 12.7998 14.4977 13.3183 14.4977H17.1422C17.3421 14.4977 17.5358 14.4102 17.6545 14.2476L21.8781 8.62447C21.9573 8.52023 22 8.39296 22 8.26204C22 8.13127 21.9573 8.004 21.8781 7.89976L18.1105 2.88252C17.9919 2.72007 17.7983 2.62634 17.5982 2.62634H6.40177C6.19558 2.62634 6.00814 2.72007 5.88943 2.87627L2.12185 7.89976C2.0428 8.004 2 8.13127 2 8.26204C2 8.39296 2.0428 8.52023 2.12185 8.62447L11.4877 21.1205C11.7376 21.458 12.2624 21.458 12.5123 21.1205L14.4243 18.5652C14.5033 18.4608 14.5462 18.3336 14.5462 18.2027C14.5462 18.0718 14.5033 17.9445 14.4243 17.8403L6.9391 7.95589C6.63294 7.5498 6.9391 6.99997 7.45144 6.99997H7.44519Z" fill="#5293FE"/>
</svg>

<svg xmlns="http://www.w3.org/2000/svg" width="24" height="24" fill="none" viewBox="0 0 24 24">
    <path fill="#5293FE" d="M7.445 7h9.091c.519 0 .819.55.519.956l-4.249 5.567c-.312.406-.006.975.512.975h3.824a.63.63 0 0 0 .512-.25l4.224-5.624a.6.6 0 0 0 0-.724L18.11 2.883a.64.64 0 0 0-.512-.257H6.402a.64.64 0 0 0-.513.25L2.122 7.9a.6.6 0 0 0 0 .724l9.366 12.497a.645.645 0 0 0 1.024 0l1.912-2.556a.6.6 0 0 0 0-.725L6.94 7.956C6.633 7.55 6.94 7 7.451 7z"/>
</svg>
